packages/foundations/assets/icons/functional/images/transportation/electric_car_12.svg

<svg width="12" height="12" viewBox="0 0 12 12" fill="none" xmlns="http://www.w3.org/2000/svg">
<g clip-path="url(#clip0_232_491)">
<path fill-rule="evenodd" clip-rule="evenodd" d="M6.59995 1.19461C6.93132 1.19461 7.19995 1.46324 7.19995 1.79461C7.19995 2.10231 6.94828 2.3941 6.59995 2.39461C5.71215 2.39589 4.82432 2.39592 3.93645 2.39469C3.87526 2.39461 3.83479 2.44088 3.82096 2.49162C3.79493 2.60326 3.66986 3.17092 3.44575 4.19461L5.4554 4.19464C5.57264 3.87713 5.93249 3.59461 6.29995 3.59461C6.40137 3.59326 6.50137 3.59326 6.59995 3.59461C6.59561 3.29137 6.80455 2.9951 7.19995 2.9951C7.19995 2.9951 7.79995 2.9951 8.99995 2.9951C9.29995 2.99461 9.59995 3.29461 9.59561 3.60528L9.89995 3.60637C10.3678 3.60637 10.8 3.98111 10.8 4.49461C10.8 5.09461 10.8 6.89461 10.8 9.89461C10.8 10.3624 10.4296 10.794 9.89995 10.7946C8.69998 10.7959 7.49998 10.7999 6.29995 10.8064C5.83213 10.8064 5.40126 10.4224 5.39995 9.90637C5.39865 9.39548 5.39865 8.89156 5.39995 8.39461C4.70658 8.33753 4.10658 8.27473 3.59995 8.20621C3.59995 8.31781 3.59995 8.58061 3.59995 8.99461H2.09995L2.09966 7.18261C2.07525 7.11271 2.03149 6.91007 2.02502 6.85343C1.96949 6.36733 1.91527 5.88105 1.86235 5.39461H1.58889C1.36687 5.39461 1.19995 5.20181 1.19995 4.98101V4.58101C1.19995 4.35981 1.36687 4.19461 1.58889 4.19461H2.21755L2.64898 2.23379C2.77322 1.66907 3.24543 1.19551 3.87526 1.19461C4.78347 1.19331 5.6917 1.19331 6.59995 1.19461ZM9.59995 4.80601H6.59995V9.60601H9.59995V4.80601ZM7.94161 5.64737C8.0548 5.42612 8.32593 5.33852 8.54718 5.45172C8.75 5.55548 8.86925 5.81289 8.74284 6.05729C8.65452 6.23121 8.53822 6.45831 8.39395 6.73861L8.55773 6.73781C8.88336 6.73525 9.12769 7.0853 8.9532 7.40891C8.86438 7.56624 8.60854 8.01971 8.18569 8.76932C8.06357 8.98578 7.7891 9.06226 7.57265 8.94014C7.37423 8.8282 7.27491 8.56981 7.40183 8.32709C7.4705 8.20412 7.59881 7.97622 7.78675 7.64341L7.65888 7.6449C7.34211 7.64739 7.09228 7.31954 7.25473 6.98996C7.3528 6.80125 7.58176 6.35373 7.94161 5.64737ZM3.55128 5.40624C3.30912 5.35033 3.06749 5.50132 3.01158 5.74348C2.96034 5.96546 3.08294 6.18699 3.29025 6.26544L4.22576 6.48563C4.46791 6.54154 4.70954 6.39055 4.76545 6.14839C4.8167 5.92641 4.6941 5.70488 4.48679 5.62644L3.55128 5.40624Z" fill="#1A1C1F"/>
</g>
<defs>
<clipPath id="clip0_232_491">
<rect width="12" height="12" fill="white"/>
</clipPath>
</defs>
</svg>

<svg xmlns="http://www.w3.org/2000/svg" width="12" height="12" fill="none"><g clip-path="url(#a)"><path fill="#1A1C1F" fill-rule="evenodd" d="M6.6 1.195a.6.6 0 0 1 0 1.2H3.936c-.06 0-.101.046-.115.097q-.039.167-.375 1.703h2.01c.117-.318.476-.6.844-.6q.151-.003.3 0a.574.574 0 0 1 .6-.6H9c.3 0 .6.3.596.61l.304.001c.468 0 .9.375.9.889v5.4c0 .467-.37.899-.9.9q-1.8.001-3.6.011a.907.907 0 0 1-.9-.9V8.395a35 35 0 0 1-1.8-.189v.789H2.1V7.183a3 3 0 0 1-.075-.33q-.084-.729-.163-1.458H1.59c-.222 0-.389-.193-.389-.414v-.4c0-.221.167-.386.389-.386h.629l.431-1.961c.124-.565.596-1.038 1.226-1.04zm3 3.611h-3v4.8h3zm-1.658.841a.45.45 0 0 1 .605-.195.445.445 0 0 1 .196.605q-.132.26-.35.682l.165-.001a.45.45 0 0 1 .395.67L8.186 8.77a.45.45 0 1 1-.784-.442l.385-.684-.128.002a.448.448 0 0 1-.404-.655q.147-.283.687-1.343m-4.39-.24a.45.45 0 0 0-.262.858l.936.22a.45.45 0 0 0 .26-.859z" clip-rule="evenodd"/></g><defs><clipPath id="a"><path fill="#fff" d="M0 0h12v12H0z"/></clipPath></defs></svg>
